X:1
T:Title
%%score { ( 1 4 ) | ( 2 3 ) }
L:1/8
Q:1/4=120
M:4/4
K:C
V:1 treble nm="Grand Piano"
V:4 treble 
V:2 bass 
V:3 bass 
V:1
 [EG]4 [EG]2 [EG]2 | [FG]4 A2 B2 | c4 B2 A2 | [EG]8 | A4 c2 A2 | [EG]4 [Ec]2 [Ge]2 | [^Fd]4 [Fd]4 | %7
 d8 | [EG]4 [EG]2 [EG]2 | [FG]4 A2 B2 | C2- [CGB]2 G2- [Gd]2 | [Ge]8 | A4 z4 | G4 c4 | e4 d4 | %15
 [Ec]8 |] %16
V:2
 [C,C]4 [C,C]2 [C,C]2 | [D,B,]4[K:treble] [G,DF]4 | [A,CE]4[K:bass] [F,CF]4 | [C,C]8 | %4
 [F,CF]4 [F,A,F]2 [F,CF]2 | [C,C]4 G,2 C2 | [D,A,]4 [D,C]4 | G4 z4 | [C,C]4 [C,C]2 [C,C]2 | %9
 [D,B,]4[K:treble] [G,DF]4 | A,2[K:bass] F,2 E,2 [D,B,]2 | [C,C]8 | F2 z2 [^F,C_E]2 [F,CE]2 | %13
 [G,CE]4 [A,CE]4 | [G,CG]4[K:bass] [G,,G,B,F]4 | [C,C]8 |] %16
V:3
 x8 | x4[K:treble] x4 | x4[K:bass] x4 | x8 | x8 | z4 C,4 | x8 | [G,B,]8 | x8 | x4[K:treble] x4 | %10
 x2[K:bass] x6 | x8 | [F,C]4 z4 | x8 | x4[K:bass] x4 | x8 |] %16
V:4
 x8 | x8 | x8 | x8 | x8 | x8 | x8 | z4 F4 | x8 | x8 | [Ec]2 z2 [Cc]2 z2 | x8 | z2 D2 B2 A2 | x8 | %14
 x8 | x8 |] %16

